src/icons/outline/metrics/formula.svg

<svg width="24" height="24" viewBox="0 0 24 24" fill="none" xmlns="http://www.w3.org/2000/svg">
<g clip-path="url(#clip0_4833_350)">
<path d="M12.6875 2C13.0671 2.00004 13.3749 2.31088 13.375 2.69434C13.375 3.07784 13.0672 3.38863 12.6875 3.38867H12.3203C10.7318 3.38889 9.36087 4.53474 9.05469 6.15723L9.05273 6.16504L8.40625 9.40723H10.2129L10.3506 9.42188C10.6639 9.48649 10.9002 9.766 10.9004 10.1016C10.9004 10.4849 10.5924 10.7956 10.2129 10.7959H8.12891L6.6709 18.1055C6.24216 20.3695 4.31352 22 2.05371 22H1.6875C1.30789 22 1.00013 21.6891 1 21.3057C1 20.9221 1.30781 20.6113 1.6875 20.6113H2.05371C3.64263 20.6113 5.01428 19.4647 5.32031 17.8418L5.32227 17.835L6.72656 10.7959H4.5293C4.1496 10.7959 3.8418 10.4851 3.8418 10.1016C3.84197 9.71818 4.14971 9.40723 4.5293 9.40723H7.00391L7.7041 5.89355C8.13295 3.62989 10.0608 2.00022 12.3203 2H12.6875Z" fill="#3C3B44"/>
<path d="M12.5684 10.6299C12.8368 10.3587 13.2716 10.3587 13.54 10.6299C13.8084 10.9011 13.8085 11.3402 13.54 11.6113C12.7061 12.4537 12.0918 14.0978 12.0918 16.2129C12.0918 18.3279 12.7062 19.9721 13.54 20.8145C13.8085 21.0856 13.8085 21.5257 13.54 21.7969C13.2716 22.0678 12.8368 22.0677 12.5684 21.7969C11.3856 20.6022 10.7168 18.5421 10.7168 16.2129C10.7168 13.8837 11.3857 11.8245 12.5684 10.6299Z" fill="#3C3B44"/>
<path d="M20.1768 10.6299C20.4452 10.3587 20.88 10.3587 21.1484 10.6299C22.3311 11.8246 23 13.8838 23 16.2129C23 18.5421 22.3312 20.6022 21.1484 21.7969C20.88 22.0678 20.4452 22.0677 20.1768 21.7969C19.9083 21.5257 19.9083 21.0856 20.1768 20.8145C21.0105 19.972 21.625 18.3278 21.625 16.2129C21.625 14.0979 21.0106 12.4537 20.1768 11.6113C19.9083 11.3401 19.9083 10.9011 20.1768 10.6299Z" fill="#3C3B44"/>
<path d="M18.335 12.3311C18.5335 12.0042 18.9566 11.902 19.2803 12.1025C19.6038 12.3031 19.7053 12.7307 19.5068 13.0576L17.6191 16.166L19.5068 19.2754C19.7053 19.6023 19.6039 20.0299 19.2803 20.2305C18.9567 20.4309 18.5336 20.3286 18.335 20.002L16.8125 17.4941L15.29 20.002C15.0915 20.3287 14.6683 20.4309 14.3447 20.2305C14.0211 20.0299 13.9197 19.6023 14.1182 19.2754L16.0059 16.166L14.1182 13.0576C13.9197 12.7307 14.0212 12.3031 14.3447 12.1025C14.6684 11.902 15.0915 12.0042 15.29 12.3311L16.8125 14.8379L18.335 12.3311Z" fill="#3C3B44"/>
</g>
<defs>
<clipPath id="clip0_4833_350">
<rect width="24" height="24" fill="white"/>
</clipPath>
</defs>
</svg>

<svg xmlns="http://www.w3.org/2000/svg" width="24" height="24" fill="none" viewBox="0 0 24 24"><g fill="currentColor" clip-path="url(#a)"><path d="M12.688 2c.38 0 .687.31.687.694a.69.69 0 0 1-.687.695h-.368c-1.588 0-2.96 1.146-3.265 2.768l-.002.008-.647 3.242h1.807l.138.015c.313.064.55.344.55.68a.69.69 0 0 1-.688.694H8.129l-1.458 7.31C6.242 20.368 4.314 22 2.054 22h-.366A.69.69 0 0 1 1 21.306a.69.69 0 0 1 .688-.695h.366c1.589 0 2.96-1.146 3.266-2.77l.002-.006 1.405-7.04H4.529a.69.69 0 0 1-.687-.693c0-.384.308-.695.687-.695h2.475l.7-3.513C8.133 3.63 10.061 2 12.32 2zm-.12 8.63a.68.68 0 0 1 .972 0 .7.7 0 0 1 0 .981c-.834.843-1.448 2.487-1.448 4.602s.614 3.76 1.448 4.601a.7.7 0 0 1 0 .983.68.68 0 0 1-.972 0c-1.182-1.195-1.851-3.255-1.851-5.584 0-2.33.669-4.389 1.851-5.583m7.609 0a.68.68 0 0 1 .971 0C22.331 11.825 23 13.884 23 16.213s-.669 4.39-1.852 5.584a.68.68 0 0 1-.971 0 .7.7 0 0 1 0-.983c.834-.842 1.448-2.486 1.448-4.601s-.614-3.76-1.448-4.602a.7.7 0 0 1 0-.981m-1.842 1.701a.683.683 0 0 1 .945-.229.7.7 0 0 1 .227.956l-1.888 3.108 1.888 3.11a.7.7 0 0 1-.227.954.684.684 0 0 1-.945-.228l-1.523-2.508-1.522 2.508a.684.684 0 0 1-.945.229.7.7 0 0 1-.227-.956l1.888-3.109-1.888-3.108a.7.7 0 0 1 .227-.956.683.683 0 0 1 .945.23l1.523 2.506z"/></g><defs><clipPath id="a"><path fill="currentColor" d="M0 0h24v24H0z"/></clipPath></defs></svg>
